src/images/skill/bushcraft/birch.svg

<svg xmlns="http://www.w3.org/2000/svg" viewBox="0 0 512 512" style="height: 512px; width: 512px;"><g class="" transform="translate(0,0)" style=""><path d="m78.62 25.25 2.78 50.8c8.96-6.56 27.6-5.93 38 3.54L82.24 91.44l.64 11.46 26.92-1-26.46 9.5 2.84 51.8-70.07-43.3-.17 47 73.52 53.5 18.34-22.1c1.6 11.1-.7 23.8-15.44 41.8 0 0 6.7 52 3.8 125.3l42.14 4-42.54 5.5c-.4 4.5-.6 8.9-.9 13.5 52.64-15.6 63.94 9.9 63.94 9.9l-65.44 10.3c-2.2 25-5.64 51-10.71 78.1H191c0-75-6.2-122.2-9.2-170.8-22.1 2.8-45.3-1.1-45.3-1.1s12-18 44.4-17.5c-.7-21.5-.7-44 1-69.7l-43.6-4 34.8-4.8c-4.9-33.8-10-65.3-14.7-94.4l-25.3.5 22.4-18.5c-4.9-30.45-9.1-57.73-11.6-81.15zm267.08 0c-.9 10.31-1.8 20.4-2.4 30.29 17.6-12.7 39 11.56 39 11.56s-20.5 19.36-40.2 6.77v.2c-1.3 20.97-2.2 41.93-3 62.83-.8 19.8-1.4 39.5-2.3 59.2-.5 11.5-1.1 22.9-1.7 34.5 14.2 5.4 28.8 10.6 43.1 15.8l-44.6 7.5c-3.1 43.5-8.3 89.2-18.3 140.9l49.2 13.8-52.6 3.1c-4.9 22.9-10.8 47.9-17.9 75h123.1c.1-8.3.1-15.6.3-22.9l-16.8-5.2s7.1-7.3 17.1-12.5c1.1-41.8 3.5-77 6.6-106.8l-37.4-7.8 38.3-.8c.3-3.3.8-6.6 1.2-9.8-21.3.6-43.6-9.3-43.6-9.3s18-22.8 45.7-7c12.4-88.4 30.7-115.1 30.7-115.1l-48 59.3c-.5-16.3 5.7-40.2 22.6-56.8-3.5-15.4-4.9-33.7-5.1-52.5l-25.5-5.7 25.5-3.3c0-3.9.1-7.7.3-11.6l-42.1 4.6s16.8-26.26 42.6-18.1c2.5-42.99 9.1-80.15 9.1-80.15zM216.5 34.1l7.9 49.76-52-37.06 7.9 21.34c81.1 51.66 107.4 86.96 136.5 125.06l1.2-47.1s-54.9-9.4-101.5-112zm279.6 23.94-45.9 24.21-2.1 31.95 47.3-35.92zM141.2 236.3c6.1-.1 13.2 1.2 21.1 5-12.3 18.3-45.2 4.7-45.2 4.7 7.8-6 14.4-9.4 24.1-9.7zm220.4 132.1c8.8-.2 17.8 4.1 25.3 17.2-15.6 9-29.9 8.9-40.2 6.5-10.3-2.3-16.7-6.9-16.7-6.9s15.1-16.4 31.6-16.8zm-212.3 76.4c8.1-.3 17.1 3.1 26 13.8-23.1 11.4-53.6 1-53.6 1 9.4-7.9 15.4-14.4 27.6-14.8z" fill="#fff" fill-opacity="1"></path></g></svg>

<svg xmlns="http://www.w3.org/2000/svg" viewBox="0 0 512 512" style="height: 512px; width: 512px;"><g class="" transform="translate(0,0)" style=""><g><path d="M78.62 25.25L81.4 76.05C90.36 69.49 109 70.12 119.4 79.59L82.24 91.44L82.88 102.9L109.8 101.9L83.34 111.4L86.18 163.2L16.11 119.9L15.94 166.9L89.46 220.4L107.8 198.3C109.4 209.4 107.1 222.1 92.36 240.1C92.36 240.1 99.06 292.1 96.16 365.4L138.3 369.4L95.76 374.9C95.36 379.4 95.16 383.8 94.86 388.4C147.5 372.8 158.8 398.3 158.8 398.3L93.36 408.6C91.16 433.6 87.72 459.6 82.65 486.7L191 486.7C191 411.7 184.8 364.5 181.8 315.9C159.7 318.7 136.5 314.8 136.5 314.8C136.5 314.8 148.5 296.8 180.9 297.3C180.2 275.8 180.2 253.3 181.9 227.6L138.3 223.6L173.1 218.8C168.2 185 163.1 153.5 158.4 124.4L133.1 124.9L155.5 106.4C150.6 75.95 146.4 48.67 143.9 25.25Z" class="" fill="#b7bdc3" fill-opacity="1"></path><path d="M345.7 25.25C344.8 35.56 343.9 45.65 343.3 55.54C360.9 42.84 382.3 67.1 382.3 67.1C382.3 67.1 361.8 86.46 342.1 73.87L342.1 74.07C340.8 95.04 339.9 116 339.1 136.9C338.3 156.7 337.7 176.4 336.8 196.1C336.3 207.6 335.7 219 335.1 230.6C349.3 236 363.9 241.2 378.2 246.4L333.6 253.9C330.5 297.4 325.3 343.1 315.3 394.8L364.5 408.6L311.9 411.7C307 434.6 301.1 459.6 294 486.7L417.1 486.7C417.2 478.4 417.2 471.1 417.4 463.8L400.6 458.6C400.6 458.6 407.7 451.3 417.7 446.1C418.8 404.3 421.2 369.1 424.3 339.3L386.9 331.5L425.2 330.7C425.5 327.4 426 324.1 426.4 320.9C405.1 321.5 382.8 311.6 382.8 311.6C382.8 311.6 400.8 288.8 428.5 304.6C440.9 216.2 459.2 189.5 459.2 189.5L411.2 248.8C410.7 232.5 416.9 208.6 433.8 192C430.3 176.6 428.9 158.3 428.7 139.5L403.2 133.8L428.7 130.5C428.7 126.6 428.8 122.8 429 118.9L386.9 123.5C386.9 123.5 403.7 97.24 429.5 105.4C432 62.41 438.6 25.25 438.6 25.25Z" class="" fill="#8e9190" fill-opacity="1"></path><path d="M216.5 34.1L224.4 83.86L172.4 46.8L180.3 68.14C261.4 119.8 287.7 155.1 316.8 193.2L318 146.1C318 146.1 263.1 136.7 216.5 34.1Z" class="" fill="#8e9190" fill-opacity="1"></path><path d="M496.1 58.04L450.2 82.25L448.1 114.2L495.4 78.28Z" class="selected" fill="#8e9190" fill-opacity="1"></path><path d="M141.2 236.3C147.3 236.2 154.4 237.5 162.3 241.3C150 259.6 117.1 246 117.1 246C124.9 240 131.5 236.6 141.2 236.3Z" class="" fill="#3c2821" fill-opacity="1"></path><path d="M361.6 368.4C370.4 368.2 379.4 372.5 386.9 385.6C371.3 394.6 357 394.5 346.7 392.1C336.4 389.8 330 385.2 330 385.2C330 385.2 345.1 368.8 361.6 368.4Z" class="" fill="#3c2821" fill-opacity="1"></path><path d="M149.3 444.8C157.4 444.5 166.4 447.9 175.3 458.6C152.2 470 121.7 459.6 121.7 459.6C131.1 451.7 137.1 445.2 149.3 444.8Z" class="" fill="#3c2821" fill-opacity="1"></path></g></g></svg>
